!!!OTL: FRUH FRUH DES MORGENS FRUH
!!!ARE: Europa, Mitteleuropa, Deutschland
!!!SCT: F0653
!!!YEM: Copyright 1995, estate of Helmut Schaffrath.
**kern
*ICvox
*Ivox
*M3/4
*k[b-]
*F:
=1
{8cc
8b-
8a
8cc
4ff
=2
4.cc
8b-
4a}
=3
{8f
8dd
4dd
8ff
8dd
=4
4.cc
8dd
4cc}
=5
{8cc
8b-
4b-
4cc
=6
8.a
16g
8a
8b-
4cc}
=7
{8cc
8b-
4a
4b-
=8
4a
2r}
==
!!!AGN: Staende -, Jaeger - Lied
!!!ONB: ESAC (Essen Associative Code) Database: FINK
!!!AMT: simple triple
!!!AIN: vox
!!!EED: Helmut Schaffrath
!!!EEV: 1.0
*-
